src/svg/smiley.svg

<svg height="16" width="16" xmlns="http://www.w3.org/2000/svg" viewBox="0 0 16 16">
  <path d="M8 0C3.58 0 0 3.58 0 8s3.58 8 8 8 8-3.58 8-8S12.42 0 8 0z m4.81 12.81c-0.63 0.63-1.36 1.11-2.17 1.45-0.83 0.36-1.72 0.53-2.64 0.53s-1.81-0.17-2.64-0.53c-0.81-0.34-1.55-0.83-2.17-1.45s-1.11-1.36-1.45-2.17c-0.36-0.83-0.53-1.72-0.53-2.64s0.17-1.81 0.53-2.64c0.34-0.81 0.83-1.55 1.45-2.17s1.36-1.11 2.17-1.45c0.83-0.36 1.72-0.53 2.64-0.53s1.81 0.17 2.64 0.53c0.81 0.34 1.55 0.83 2.17 1.45s1.11 1.36 1.45 2.17c0.36 0.83 0.53 1.72 0.53 2.64s-0.17 1.81-0.53 2.64c-0.34 0.81-0.83 1.55-1.45 2.17zM4 5.8v-0.59c0-0.66 0.53-1.19 1.2-1.19h0.59c0.66 0 1.19 0.53 1.19 1.19v0.59c0 0.67-0.53 1.2-1.19 1.2h-0.59c-0.67 0-1.2-0.53-1.2-1.2z m5 0v-0.59c0-0.66 0.53-1.19 1.2-1.19h0.59c0.66 0 1.19 0.53 1.19 1.19v0.59c0 0.67-0.53 1.2-1.19 1.2h-0.59c-0.67 0-1.2-0.53-1.2-1.2z m4 4.2c-0.72 1.88-2.91 3-5 3s-4.28-1.13-5-3c-0.14-0.39 0.23-1 0.66-1h8.59c0.41 0 0.89 0.61 0.75 1z" />
</svg>

<?xml version="1.0" encoding="UTF-8" standalone="no"?>
<svg width="16px" height="16px" viewBox="0 0 16 16" version="1.1" xmlns="http://www.w3.org/2000/svg" xmlns:xlink="http://www.w3.org/1999/xlink">
    <!-- Generator: Sketch 3.7.1 (28215) - http://www.bohemiancoding.com/sketch -->
    <title>smiley</title>
    <desc>Created with Sketch.</desc>
    <defs></defs>
    <g id="Octicons" stroke="none" stroke-width="1" fill="none" fill-rule="evenodd">
        <g id="smiley" fill="#000000">
            <path d="M8,0 C3.58,0 0,3.58 0,8 C0,12.42 3.58,16 8,16 C12.42,16 16,12.42 16,8 C16,3.58 12.42,0 8,0 L8,0 Z M12.81,12.81 C12.18,13.44 11.45,13.92 10.64,14.26 C9.81,14.62 8.92,14.79 8,14.79 C7.08,14.79 6.19,14.62 5.36,14.26 C4.55,13.92 3.81,13.43 3.19,12.81 C2.57,12.19 2.08,11.45 1.74,10.64 C1.38,9.81 1.21,8.92 1.21,8 C1.21,7.08 1.38,6.19 1.74,5.36 C2.08,4.55 2.57,3.81 3.19,3.19 C3.81,2.57 4.55,2.08 5.36,1.74 C6.19,1.38 7.08,1.21 8,1.21 C8.92,1.21 9.81,1.38 10.64,1.74 C11.45,2.08 12.19,2.57 12.81,3.19 C13.43,3.81 13.92,4.55 14.26,5.36 C14.62,6.19 14.79,7.08 14.79,8 C14.79,8.92 14.62,9.81 14.26,10.64 C13.92,11.45 13.43,12.19 12.81,12.81 L12.81,12.81 Z M4,5.8 L4,5.21 C4,4.55 4.53,4.02 5.2,4.02 L5.79,4.02 C6.45,4.02 6.98,4.55 6.98,5.21 L6.98,5.8 C6.98,6.47 6.45,7 5.79,7 L5.2,7 C4.53,7 4,6.47 4,5.8 L4,5.8 Z M9,5.8 L9,5.21 C9,4.55 9.53,4.02 10.2,4.02 L10.79,4.02 C11.45,4.02 11.98,4.55 11.98,5.21 L11.98,5.8 C11.98,6.47 11.45,7 10.79,7 L10.2,7 C9.53,7 9,6.47 9,5.8 L9,5.8 Z M13,10 C12.28,11.88 10.09,13 8,13 C5.91,13 3.72,11.87 3,10 C2.86,9.61 3.23,9 3.66,9 L12.25,9 C12.66,9 13.14,9.61 13,10 L13,10 Z" id="Shape"></path>
        </g>
    </g>
</svg>
